X:078
T:Plane Tree
M:6/8
L:1/8
K:Em
EGB EGB | cBA B3 | cde dcB | AGA B2 E | 
EGB EGB | cBA B3 | cde dcB | AGF E3 :|| 
efg f2e | ded B3 | cde dcB | AGA B2 E | 
efg f2e | ded B3 | cde dcB | AGF E3 :|| 

